!!!COM: Music21
!!!OTL: reel_Jordan-Is-A-Hard-Road-To-Travel
!!!OMV: reel_Jordan-Is-A-Hard-Road-To-Travel
**kern
*clefG2
*k[f#]
*G:
*M4/4
=1
12ddL
12ee
12ff#J
=||
4gg
4gg
4ff#
4ff#
=
8eeL
8ff#J
8eeL
8cc#XJ
4dd
8eeL
8ff#J
=
4.gg
8gg
4aa
4gg
=
8ff#L
8eeJ
4dd
4dd
8eeL
8ff#J
=
4gg
8bbL
8ggJ
4ff#
4ff#
=
8eeL
8ff#J
8eeL
8cc#XJ
4dd
8bL
8ccnJ
!!linebreak:original
=
8ddL
8eeJ
8ddL
8bJ
8ddL
8bJ
8aL
8bJ
=
4a
2g
8eeL
8ff#J
=||
4gg
4gg
4ff#
4ff#
=
8eeL
8ff#J
8eeL
8cc#XJ
4dd
8eeL
8ff#J
=
4.gg
8gg
4aa
4gg
=
8ff#L
8eeJ
4dd
4dd
8eeL
8ff#J
=
4gg
8bbL
8ggJ
4ff#
4ff#
!!linebreak:original
=
8eeL
8ff#J
8eeL
8cc#XJ
4dd
8bL
8ccnJ
=
8ddL
8eeJ
8ddL
8bJ
8ddL
8bJ
8aL
8bJ
=
4a
2g
8bL
8aJ
=||
4g
8gL
8aJ
8bL
8aJ
8gL
8f#J
=
8gL
8aJ
8bL
8ccJ
4dd
4ee
=
8ddL
8eeJ
8ddL
8bJ
8ddL
8bJ
8aL
8gJ
!!linebreak:original
=
8aL
8bJ
8aL
8gJ
8f#L
8dJ
8eL
8f#J
=
4g
8gL
8aJ
8bL
8aJ
8gL
8f#J
=
8gL
8aJ
8bL
8ccJ
4dd
8eeL
8ff#J
=
8ggL
8aaJ
8ggL
8ff#J
8ggL
8ff#J
8eeL
8ddJ
=
8aL
8bJ
8aL
8f#J
4g
8bL
8aJ
!!linebreak:original
=||
4g
8gL
8aJ
8bL
8aJ
8gL
8f#J
=
8gL
8aJ
8bL
8ccJ
4dd
4ee
=
8ddL
8eeJ
8ddL
8bJ
8ddL
8bJ
8aL
8gJ
=
8aL
8bJ
8aL
8gJ
8f#L
8dJ
8eL
8f#J
=
4g
8gL
8aJ
8bL
8aJ
8gL
8f#J
=
8gL
8aJ
8bL
8ccJ
4dd
8eeL
8ff#J
!!linebreak:original
=
8ggL
8aaJ
8ggL
8ff#J
8ggL
8ff#J
8eeL
8ddJ
=
8aL
8bJ
8aL
8f#J
2g
=||
*-
